X: 186
T:Ullswater Regatta. BF13.080
M:4/4
Q:200
S:c1850, Browne Coll. Ambleside
K:F
F2F2FAcA|dBcA dBGE|F2F2FAcA|dBGEF2F2::
f2f2cfaf|bgaf gfde|f2f2cfaf|bgafg2f2|
f2f2cfaf|bgaf gede|fcAc fgag|fdBAF2FF:|
%%vskip .5cm
